svg/shape/clubs_fill.svg

<?xml version="1.0" encoding="UTF-8"?>
<svg width="24px" height="24px" viewBox="0 0 24 24" version="1.1" xmlns="http://www.w3.org/2000/svg" xmlns:xlink="http://www.w3.org/1999/xlink">
    <title>clubs_fill</title>
    <g id="Icon" stroke="none" stroke-width="1" fill="none" fill-rule="evenodd">
        <g id="Shape" transform="translate(-480.000000, -48.000000)">
            <g id="clubs_fill" transform="translate(480.000000, 48.000000)">
                <path d="M24,0 L24,24 L0,24 L0,0 L24,0 Z M12.5935,23.2578 L12.5819,23.2595 L12.5109,23.295 L12.4919,23.2987 L12.4767,23.295 L12.4057,23.2595 C12.3958,23.2564 12.387,23.259 12.3821,23.2649 L12.378,23.2758 L12.3609,23.7031 L12.3659,23.7235 L12.3769,23.7357 L12.4805,23.8097 L12.4953,23.8136 L12.5071,23.8097 L12.6107,23.7357 L12.6233,23.7197 L12.6267,23.7031 L12.6096,23.2758 C12.6076,23.2657 12.601,23.2593 12.5935,23.2578 Z M12.8584,23.1453 L12.8445,23.1473 L12.6598,23.2397 L12.6499,23.2499 L12.6472,23.2611 L12.6651,23.6906 L12.6699,23.7034 L12.6784,23.7105 L12.8793,23.8032 C12.8914,23.8069 12.9022,23.803 12.9078,23.7952 L12.9118,23.7812 L12.8777,23.1665 C12.8753,23.1546 12.8674,23.147 12.8584,23.1453 Z M12.143,23.1473 C12.1332,23.1424 12.1222,23.1453 12.1156,23.1526 L12.1099,23.1665 L12.0758,23.7812 C12.0751,23.7927 12.0828,23.8019 12.0926,23.8046 L12.1083,23.8032 L12.3092,23.7105 L12.3186,23.7024 L12.3225,23.6906 L12.3404,23.2611 L12.3372,23.2485 L12.3278,23.2397 L12.143,23.1473 Z" id="MingCute" fill-rule="nonzero"></path>
                <path d="M9.92414,18.6164 C9.33199,18.8635 8.68204,19 8,19 C5.23858,19 3,16.7614 3,14 C3,11.54 4.77655,9.49492 7.11667,9.07778 C7.04026,8.73035 7,8.36963 7,8 C7,5.23858 9.23858,3 12,3 C14.7614,3 17,5.23858 17,8 C17,8.36963 16.9597,8.73035 16.8833,9.07778 C19.2234,9.49492 21,11.54 21,14 C21,16.7614 18.7614,19 16,19 C15.318,19 14.668,18.8635 14.0759,18.6164 C14.301,19.3399 14.5613,19.9919 14.8575,20.4855 C15.0429,20.7944 15.0477,21.1792 14.8702,21.4927 C14.6927,21.8062 14.3603,22 14,22 L10,22 C9.63973,22 9.30731,21.8062 9.1298,21.4927 C8.95229,21.1792 8.95715,20.7944 9.14251,20.4855 C9.43868,19.9919 9.69898,19.3399 9.92414,18.6164 Z" id="路径" fill="#09244B"></path>
            </g>
        </g>
    </g>
</svg>

<svg xmlns="http://www.w3.org/2000/svg" width="24" height="24"><g fill="none" fill-rule="evenodd"><path d="M24 0v24H0V0h24ZM12.594 23.258l-.012.002-.071.035-.02.004-.014-.004-.071-.036c-.01-.003-.019 0-.024.006l-.004.01-.017.428.005.02.01.013.104.074.015.004.012-.004.104-.074.012-.016.004-.017-.017-.427c-.002-.01-.009-.017-.016-.018Zm.264-.113-.014.002-.184.093-.01.01-.003.011.018.43.005.012.008.008.201.092c.012.004.023 0 .029-.008l.004-.014-.034-.614c-.003-.012-.01-.02-.02-.022Zm-.715.002a.023.023 0 0 0-.027.006l-.006.014-.034.614c0 .012.007.02.017.024l.015-.002.201-.093.01-.008.003-.011.018-.43-.003-.012-.01-.01-.184-.092Z"/><path fill="#09244B" d="M9.924 18.616a5 5 0 1 1-2.807-9.539 5 5 0 1 1 9.767 0 5.002 5.002 0 1 1-2.808 9.54c.225.723.485 1.375.781 1.868A1 1 0 0 1 14 22h-4a1 1 0 0 1-.857-1.515c.296-.493.556-1.145.781-1.869Z"/></g></svg>
